static/icons/accept-icon.svg

<?xml version="1.0" encoding="UTF-8" standalone="no"?>
<svg
   width="40"
   height="40"
   viewBox="0 0 40 40"
   fill="none"
   version="1.1"
   id="svg6"
   sodipodi:docname="accept-icon.svg"
   inkscape:version="1.1.1 (3bf5ae0d25, 2021-09-20)"
   xmlns:inkscape="http://www.inkscape.org/namespaces/inkscape"
   xmlns:sodipodi="http://sodipodi.sourceforge.net/DTD/sodipodi-0.dtd"
   xmlns="http://www.w3.org/2000/svg"
   xmlns:svg="http://www.w3.org/2000/svg">
  <defs
     id="defs10" />
  <sodipodi:namedview
     id="namedview8"
     pagecolor="#ffffff"
     bordercolor="#666666"
     borderopacity="1.0"
     inkscape:pageshadow="2"
     inkscape:pageopacity="0.0"
     inkscape:pagecheckerboard="0"
     showgrid="false"
     inkscape:zoom="21.825"
     inkscape:cx="20"
     inkscape:cy="20"
     inkscape:window-width="2498"
     inkscape:window-height="1417"
     inkscape:window-x="1974"
     inkscape:window-y="-8"
     inkscape:window-maximized="1"
     inkscape:current-layer="svg6" />
  <path
     d="m 25.1674,2.17744 1.555,1.5925 2.225,-0.0275 c 0.9632,-0.0114 1.9188,0.1699 2.8109,0.53322 0.892,0.36333 1.7024,0.90135 2.3835,1.58243 0.6811,0.68108 1.2191,1.49147 1.5824,2.38351 0.3633,0.89203 0.5446,1.8477 0.5332,2.8108 l -0.025,2.225 1.59,1.555 c 0.6887,0.673 1.2359,1.4768 1.6095,2.3642 0.3736,0.8874 0.566,1.8405 0.566,2.8033 0,0.9629 -0.1924,1.916 -0.566,2.8034 -0.3736,0.8874 -0.9208,1.6912 -1.6095,2.3641 l -1.5925,1.555 0.0275,2.225 c 0.0114,0.9632 -0.1699,1.9188 -0.5332,2.8109 -0.3633,0.892 -0.9013,1.7024 -1.5824,2.3835 -0.6811,0.6811 -1.4915,1.2191 -2.3835,1.5824 -0.8921,0.3633 -1.8477,0.5446 -2.8109,0.5332 l -2.225,-0.025 -1.555,1.59 c -0.6729,0.6887 -1.4767,1.2359 -2.3641,1.6095 -0.8874,0.3736 -1.8405,0.566 -2.8034,0.566 -0.9628,0 -1.9159,-0.1924 -2.8033,-0.566 -0.8874,-0.3736 -1.6912,-0.9208 -2.3642,-1.6095 l -1.555,-1.5925 -2.225,0.0275 C 10.0893,36.2688 9.13363,36.0875 8.2416,35.7242 7.34956,35.3609 6.53917,34.8229 5.85809,34.1418 5.17701,33.4607 4.63899,32.6503 4.27566,31.7583 3.91234,30.8662 3.73104,29.9106 3.74244,28.9474 l 0.025,-2.225 -1.59,-1.555 C 1.48879,24.4945 0.941593,23.6907 0.567999,22.8033 0.194405,21.9159 0.00195312,20.9628 0.00195312,19.9999 c 0,-0.9628 0.19245188,-1.9159 0.56604588,-2.8033 0.373594,-0.8874 0.920791,-1.6912 1.609441,-2.3642 l 1.5925,-1.555 -0.0275,-2.225 C 3.73104,10.0893 3.91234,9.13363 4.27566,8.2416 4.63899,7.34956 5.17701,6.53917 5.85809,5.85809 6.53917,5.17701 7.34956,4.63899 8.2416,4.27566 9.13363,3.91234 10.0893,3.73104 11.0524,3.74244 l 2.225,0.025 1.555,-1.59 c 0.673,-0.68865 1.4768,-1.235847 2.3642,-1.609441 0.8874,-0.373594 1.8405,-0.56604588 2.8033,-0.56604588 0.9629,0 1.916,0.19245188 2.8034,0.56604588 0.8874,0.373594 1.6912,0.920791 2.3641,1.609441 z"
     fill="#217438"
     id="path4"
     sodipodi:nodetypes="ccccsscccsssccccsccccssscccssccccsssccccsccccssscc" />
  <path
     fill-rule="evenodd"
     clip-rule="evenodd"
     d="M25.8846 15.3648C26.001 15.4809 26.0934 15.6188 26.1564 15.7707C26.2194 15.9226 26.2519 16.0854 26.2519 16.2498C26.2519 16.4142 26.2194 16.577 26.1564 16.7289C26.0934 16.8807 26.001 17.0187 25.8846 17.1348L18.3846 24.6348C18.2685 24.7512 18.1306 24.8436 17.9787 24.9066C17.8268 24.9696 17.664 25.002 17.4996 25.002C17.3352 25.002 17.1724 24.9696 17.0205 24.9066C16.8687 24.8436 16.7307 24.7512 16.6146 24.6348L12.8646 20.8848C12.7484 20.7686 12.6562 20.6306 12.5933 20.4788C12.5304 20.3269 12.498 20.1642 12.498 19.9998C12.498 19.8354 12.5304 19.6727 12.5933 19.5208C12.6562 19.369 12.7484 19.231 12.8646 19.1148C12.9808 18.9986 13.1188 18.9064 13.2707 18.8435C13.4225 18.7806 13.5853 18.7482 13.7496 18.7482C13.914 18.7482 14.0767 18.7806 14.2286 18.8435C14.3804 18.9064 14.5184 18.9986 14.6346 19.1148L17.4996 21.9823L24.1146 15.3648C24.2307 15.2484 24.3687 15.156 24.5205 15.093C24.6724 15.03 24.8352 14.9976 24.9996 14.9976C25.164 14.9976 25.3268 15.03 25.4787 15.093C25.6306 15.156 25.7685 15.2484 25.8846 15.3648V15.3648Z"
     fill="#217438"
     id="path2"
     style="fill:#ffffff;fill-opacity:1" />
</svg>

<svg width="40" height="40" viewBox="0 0 40 40" fill="none" xmlns="http://www.w3.org/2000/svg">
<path fill-rule="evenodd" clip-rule="evenodd" d="M25.8846 15.3648C26.001 15.4809 26.0934 15.6188 26.1564 15.7707C26.2194 15.9226 26.2519 16.0854 26.2519 16.2498C26.2519 16.4142 26.2194 16.577 26.1564 16.7289C26.0934 16.8807 26.001 17.0187 25.8846 17.1348L18.3846 24.6348C18.2685 24.7512 18.1306 24.8436 17.9787 24.9066C17.8268 24.9696 17.664 25.002 17.4996 25.002C17.3352 25.002 17.1724 24.9696 17.0205 24.9066C16.8687 24.8436 16.7307 24.7512 16.6146 24.6348L12.8646 20.8848C12.7484 20.7686 12.6562 20.6306 12.5933 20.4788C12.5304 20.3269 12.498 20.1642 12.498 19.9998C12.498 19.8354 12.5304 19.6727 12.5933 19.5208C12.6562 19.369 12.7484 19.231 12.8646 19.1148C12.9808 18.9986 13.1188 18.9064 13.2707 18.8435C13.4225 18.7806 13.5853 18.7482 13.7496 18.7482C13.914 18.7482 14.0767 18.7806 14.2286 18.8435C14.3804 18.9064 14.5184 18.9986 14.6346 19.1148L17.4996 21.9823L24.1146 15.3648C24.2307 15.2484 24.3687 15.156 24.5205 15.093C24.6724 15.03 24.8352 14.9976 24.9996 14.9976C25.164 14.9976 25.3268 15.03 25.4787 15.093C25.6306 15.156 25.7685 15.2484 25.8846 15.3648V15.3648Z" fill="#217438"/>
<path d="M25.6824 6.28244L23.3799 3.92244L25.1674 2.17744L26.7224 3.76994L28.9474 3.74244C29.9106 3.73104 30.8662 3.91234 31.7583 4.27566C32.6503 4.63899 33.4607 5.17701 34.1418 5.85809C34.8229 6.53917 35.3609 7.34956 35.7242 8.2416C36.0875 9.13363 36.2688 10.0893 36.2574 11.0524L36.2324 13.2774L37.8224 14.8324C38.5111 15.5054 39.0583 16.3092 39.4319 17.1966C39.8055 18.084 39.9979 19.0371 39.9979 19.9999C39.9979 20.9628 39.8055 21.9159 39.4319 22.8033C39.0583 23.6907 38.5111 24.4945 37.8224 25.1674L36.2299 26.7224L36.2574 28.9474C36.2688 29.9106 36.0875 30.8662 35.7242 31.7583C35.3609 32.6503 34.8229 33.4607 34.1418 34.1418C33.4607 34.8229 32.6503 35.3609 31.7583 35.7242C30.8662 36.0875 29.9106 36.2688 28.9474 36.2574L26.7224 36.2324L25.1674 37.8224C24.4945 38.5111 23.6907 39.0583 22.8033 39.4319C21.9159 39.8055 20.9628 39.9979 19.9999 39.9979C19.0371 39.9979 18.084 39.8055 17.1966 39.4319C16.3092 39.0583 15.5054 38.5111 14.8324 37.8224L13.2774 36.2299L11.0524 36.2574C10.0893 36.2688 9.13363 36.0875 8.2416 35.7242C7.34956 35.3609 6.53917 34.8229 5.85809 34.1418C5.17701 33.4607 4.63899 32.6503 4.27566 31.7583C3.91234 30.8662 3.73104 29.9106 3.74244 28.9474L3.76744 26.7224L2.17744 25.1674C1.48879 24.4945 0.941593 23.6907 0.567999 22.8033C0.194405 21.9159 0.00195312 20.9628 0.00195312 19.9999C0.00195312 19.0371 0.194405 18.084 0.567999 17.1966C0.941593 16.3092 1.48879 15.5054 2.17744 14.8324L3.76994 13.2774L3.74244 11.0524C3.73104 10.0893 3.91234 9.13363 4.27566 8.2416C4.63899 7.34956 5.17701 6.53917 5.85809 5.85809C6.53917 5.17701 7.34956 4.63899 8.2416 4.27566C9.13363 3.91234 10.0893 3.73104 11.0524 3.74244L13.2774 3.76744L14.8324 2.17744C15.5054 1.48879 16.3092 0.941593 17.1966 0.567999C18.084 0.194405 19.0371 0.00195312 19.9999 0.00195312C20.9628 0.00195312 21.9159 0.194405 22.8033 0.567999C23.6907 0.941593 24.4945 1.48879 25.1674 2.17744L23.3799 3.92244C22.9398 3.47191 22.4141 3.1139 21.8337 2.86948C21.2532 2.62506 20.6298 2.49914 19.9999 2.49914C19.3701 2.49914 18.7467 2.62506 18.1662 2.86948C17.5858 3.1139 17.06 3.47191 16.6199 3.92244L14.3199 6.28244L11.0199 6.24244C10.3904 6.2354 9.76577 6.35425 9.1828 6.59201C8.59982 6.82977 8.07024 7.18163 7.62516 7.62694C7.18009 8.07225 6.8285 8.60201 6.59105 9.18511C6.3536 9.76821 6.23507 10.3929 6.24244 11.0224L6.28244 14.3174L3.92244 16.6199C3.47191 17.06 3.1139 17.5858 2.86948 18.1662C2.62506 18.7467 2.49914 19.3701 2.49914 19.9999C2.49914 20.6298 2.62506 21.2532 2.86948 21.8337C3.1139 22.4141 3.47191 22.9398 3.92244 23.3799L6.28244 25.6799L6.24244 28.9799C6.2354 29.6095 6.35425 30.2341 6.59201 30.8171C6.82977 31.4001 7.18163 31.9296 7.62694 32.3747C8.07225 32.8198 8.60201 33.1714 9.18511 33.4088C9.76821 33.6463 10.3929 33.7648 11.0224 33.7574L14.3174 33.7174L16.6199 36.0774C17.06 36.528 17.5858 36.886 18.1662 37.1304C18.7467 37.3748 19.3701 37.5007 19.9999 37.5007C20.6298 37.5007 21.2532 37.3748 21.8337 37.1304C22.4141 36.886 22.9398 36.528 23.3799 36.0774L25.6799 33.7174L28.9799 33.7574C29.6095 33.7645 30.2341 33.6456 30.8171 33.4079C31.4001 33.1701 31.9296 32.8182 32.3747 32.3729C32.8198 31.9276 33.1714 31.3979 33.4088 30.8148C33.6463 30.2317 33.7648 29.607 33.7574 28.9774L33.7174 25.6824L36.0774 23.3799C36.528 22.9398 36.886 22.4141 37.1304 21.8337C37.3748 21.2532 37.5007 20.6298 37.5007 19.9999C37.5007 19.3701 37.3748 18.7467 37.1304 18.1662C36.886 17.5858 36.528 17.06 36.0774 16.6199L33.7174 14.3199L33.7574 11.0199C33.7645 10.3904 33.6456 9.76577 33.4079 9.1828C33.1701 8.59982 32.8182 8.07024 32.3729 7.62516C31.9276 7.18009 31.3979 6.8285 30.8148 6.59105C30.2317 6.3536 29.607 6.23507 28.9774 6.24244L25.6824 6.28244V6.28244Z" fill="#217438"/>
</svg>
